X:541
T: ha bömögyök én a mégyi nagykocsmába
M:4/4
L:1/4
K:C
C/C/E/E/ G/A/G/F/ | E/G/ DC z |
G/G/B/B/ d/e/d/c/ | B/d/ AG z |
e c/d/ e/d/ c | c d/c/ B/A/ G |
C/C/E/E/ G/A/G/F/ | E/G/ DC z |

